!!!COM: Jules Massenet
!!!CNT: Francais
!!!TXO: Francais
!!!OTL: Que L'heure est donc bre\ve
!!!LYR: Armand Silvestre
!!!OPR: Poe^me d'Avril
!!!ONM: No. 6
!!!ENC: Jacob Pegg
!!!YOR: Romantic French Song 1830-1870 - David Tunley, ed.,
!!!YOR: New York: Garland Publishing, Inc., 1995, Vol. 6
!!!ODT: 1866/
!!NB: Vocal melody and text only encoded.
!!NB: First instance of melodic material only encoded.
**kern	**silbe
*clef G2	*
*k[b-e-a-d-g-]	*
*M6/8	*
!!created: 12/13/03 21:33
!!proofed and posted: 12/13/03 23:13
!!edit time: 28 min.
=1	=1
8r	.
8r	.
{8b-	{Que
8b-	l'heure
8cc	est
8dd	donc
=2	=2
8cc	bre^-
8b-	-ve,
8b-	qu'on
8b-	passe
8cc	en
8dd-	ai-
=3	=3
[4.cc	-mant!
4cc]}	|}
8r	.
=4	=4
8r	.
8r	.
{8f	{C'est
8ff	moins
8ee-	qu'un
8dd-	mo-
=5	=5
8cc}	-ment,}
8r	.
{8cc	{un
8b-	peu
8f	plus
8b-	qu'un
=6	=6
(2.cc	re^-
=7	=7
8f)}	-ve.}
8r	.
{8cc	{Le
8ee-	temps
8cc	nous
8ee-	en-
=8	=8
8dd-	-le\-
8cc	-ve
8b-	notre
8b-	en-
8gn	-chan-
8b-	-te-
=9	=9
2.an}	-ment.}
!!10-12 like 1-3
=13	=13
4r	.
8r	.
8r	.
{8f	{En
8f	ai-
=14	=14
4.b-;}	-mant!}
4r	.
8r;	.
=15	=15
8r	.
8r	.
{8b-	{Sous
8ee-	le
8dd-	flot
8cc-	dor-
=16	=16
4b-	-mant
8b-	sou-
8b-	-pi-
8g	-rait
8a-	la
=17	=17
2.b-	gre^-
=18	=18
8b-}	-ve;}
8r	.
{8b-	{M'ai-
8b-	-mais~
8ccn	~tu
8dd-	vrai-
=19	=19
4dd-}	-ment?}
8r	.
4r	.
8r	.
=20	=20
8r	.
8r	.
{8ccn	{Fu^t~
8ccn	~ce
8dd-	seu-
8ee-	-le-
=21	=21
8cc}	-ment}
8r	.
{8cc	{un
8b-	peu
8dd-	plus-
8ff	-qu'un
=22	=22
([4.ff	re^-
4ff]	|
[8cc	-ve?
=23	=23
4cc])}	|}
8r	.
4r	.
8r	.
!!24-end (28) previously stated melody.
*-	*-
